dressly/src/assets/brand/burberry.svg

<svg width="167" height="111" viewBox="0 0 167 111" fill="none" xmlns="http://www.w3.org/2000/svg">
<path d="M114.972 63.6084L110.988 56.6404C112.753 55.798 113.876 54.0218 113.878 52.0713C113.878 49.2676 111.589 46.9864 108.777 46.9864H100.257V63.6078H104.046V57.1563H107.061L110.75 63.6084H114.972ZM103.984 53.9476V50.203H108.067L108.051 50.2094C109.294 50.2759 110.086 50.9942 110.086 52.079C110.086 53.152 109.238 53.9038 107.973 53.9486H103.984V53.9476ZM84.7837 63.6084V46.9864H97.2401V50.1579H88.675V53.4833H96.1848V56.7255H88.675V60.2712H97.6639V63.6084H84.7837ZM67.0176 63.6084L63.034 56.6404C64.7982 55.798 65.9219 54.0215 65.9235 52.0713C65.9235 49.2676 63.6354 46.9864 60.8232 46.9864H52.3027V63.6078H56.0919V57.1563H59.1084L62.796 63.6084H67.0176ZM56.0287 53.9476V50.203H60.1127L60.0967 50.2094C61.3397 50.2759 62.1323 50.9942 62.1323 52.079C62.1323 53.152 61.2835 53.9038 60.0184 53.9486H56.0287V53.9476ZM42.2055 64.0181C46.7639 64.0181 49.4863 61.4049 49.4863 57.0287V46.9985H45.5954V56.7693C45.5954 59.1356 44.3598 60.4928 42.2058 60.4928H42.2036C40.0496 60.4928 38.8146 59.1359 38.8146 56.7693V46.9985H34.9221V57.0293C34.9221 61.4053 37.6445 64.0184 42.2036 64.0184L42.2055 64.0181ZM29.8331 54.4024C32.0785 55.1658 33.173 57.0702 33.173 58.9066C33.173 61.4938 31.0658 63.6001 28.4731 63.6084H19.2692V46.9851H27.7462C29.9528 47.0056 31.7317 48.7936 31.7343 50.9939C31.7372 52.3819 31.0174 53.672 29.8331 54.4018V54.4024ZM23.0889 60.5069H27.343C28.6803 60.5069 29.3799 59.5126 29.3799 58.5295C29.3799 57.7377 28.7483 56.6228 27.343 56.6228H23.0889V60.5069ZM26.2039 53.5223C27.1836 53.5223 27.9521 52.7679 27.9521 51.8046C27.9521 50.8733 27.1502 50.0869 26.2033 50.0869H23.0889V53.5223H26.2039ZM79.3547 54.3992C81.6001 55.162 82.6946 57.067 82.6946 58.9034C82.6946 61.491 80.5874 63.5963 77.9946 63.6052L68.7911 63.6046V46.9819L77.2668 46.9816C79.474 47.0024 81.253 48.7907 81.2556 50.9913C81.2581 52.3793 80.5387 53.6691 79.3544 54.3986L79.3547 54.3992ZM72.6105 60.5037H76.8643C78.2015 60.5037 78.9011 59.5094 78.9011 58.5263C78.9011 57.7348 78.2689 56.6196 76.8643 56.6196H72.6105V60.5037ZM75.7246 53.5191C76.7055 53.5191 77.474 52.7647 77.474 51.8014C77.474 50.8701 76.6721 50.0837 75.7246 50.0837H72.6105V53.5191H75.7246ZM131.46 63.6084L127.476 56.6404C129.241 55.798 130.364 54.0215 130.366 52.0713C130.366 49.2676 128.078 46.9864 125.266 46.9864H116.745V63.6078H120.535V57.1563H123.551L127.238 63.6084H131.46ZM120.471 53.9476V50.203H124.555L124.539 50.2094C125.782 50.2759 126.575 50.9942 126.575 52.079C126.575 53.152 125.726 53.9038 124.461 53.9486H120.471V53.9476ZM136.997 63.6084V56.8352L130.383 46.9864H135.241L139.049 52.701L142.872 46.9864H147.731L141.101 56.8352V63.6084H136.997Z" fill="#BDBDBD"/>
</svg>

<svg xmlns="http://www.w3.org/2000/svg" width="167" height="111" fill="none"><path fill="#BDBDBD" d="m114.972 63.608-3.984-6.968a5.07 5.07 0 0 0 2.89-4.569c0-2.803-2.289-5.085-5.101-5.085h-8.52v16.622h3.789v-6.452h3.015l3.689 6.452zm-10.988-9.66v-3.745h4.083l-.016.006c1.243.067 2.035.785 2.035 1.87 0 1.073-.848 1.825-2.113 1.87zm-19.2 9.66V46.986H97.24v3.172h-8.565v3.325h7.51v3.242h-7.51v3.546h8.989v3.337zm-17.766 0-3.984-6.968a5.07 5.07 0 0 0 2.89-4.569c0-2.803-2.289-5.085-5.1-5.085h-8.521v16.622h3.789v-6.452h3.016l3.688 6.452zm-10.99-9.66v-3.745h4.085l-.016.006c1.243.067 2.035.785 2.035 1.87 0 1.073-.849 1.825-2.114 1.87zm-13.822 10.07c4.558 0 7.28-2.613 7.28-6.99v-10.03h-3.89v9.771c0 2.367-1.236 3.724-3.39 3.724h-.002c-2.154 0-3.39-1.357-3.39-3.724V47h-3.892v10.03c0 4.376 2.723 6.99 7.282 6.99zm-12.373-9.616c2.246.764 3.34 2.668 3.34 4.505 0 2.587-2.107 4.693-4.7 4.701H19.27V46.985h8.477a4.02 4.02 0 0 1 3.988 4.009 4 4 0 0 1-1.9 3.408m-6.744 6.105h4.254c1.337 0 2.037-.994 2.037-1.977 0-.792-.632-1.907-2.037-1.907h-4.254zm3.115-6.985c.98 0 1.748-.754 1.748-1.717 0-.932-.802-1.718-1.749-1.718H23.09v3.435zm53.15.877c2.246.763 3.34 2.668 3.34 4.504 0 2.588-2.107 4.693-4.7 4.702h-9.203V46.982h8.476a4.02 4.02 0 0 1 3.989 4.01 3.99 3.99 0 0 1-1.902 3.407m-6.743 6.105h4.253c1.337 0 2.037-.995 2.037-1.978 0-.791-.632-1.906-2.037-1.906H72.61zm3.114-6.985c.98 0 1.749-.754 1.749-1.718 0-.93-.802-1.717-1.75-1.717H72.61v3.435zm55.735 10.09-3.984-6.969a5.07 5.07 0 0 0 2.89-4.569c0-2.803-2.288-5.085-5.1-5.085h-8.521v16.622h3.79v-6.452h3.016l3.687 6.452zm-10.989-9.661v-3.745h4.084l-.016.006c1.243.067 2.036.785 2.036 1.87 0 1.073-.849 1.825-2.114 1.87zm16.526 9.66v-6.773l-6.614-9.849h4.858l3.808 5.715 3.823-5.715h4.859l-6.63 9.85v6.772z"/></svg>
